icons/fill-new-tool-edit-pencil.svg

<svg xmlns="http://www.w3.org/2000/svg" width="32px" height="32px" viewBox="0 0 32 32" version="1.1">
    <title>fill-new-tool-edit-pencil</title>
    <g id="fill-new-tool-edit-pencil" stroke-width="1" fill-rule="evenodd">
        <path d="M3.24188856,22.045576 L12.768168,27.545576 L12.7126598,27.6417189 C12.587564,27.8583912 12.3857921,28.0203001 12.1471663,28.0954907 L5.79550657,30.0968881 C5.26875297,30.2628673 4.70718209,29.9704018 4.5412029,29.4436482 L4.51871814,29.359734 L3.07614928,22.8583365 C3.02195335,22.6140853 3.06128457,22.3583912 3.1863804,22.1417189 L3.24188856,22.045576 Z M28,28 C28.5522847,28 29,28.4477153 29,29 C29,29.5522847 28.5522847,30 28,30 L16,30 C15.4477153,30 15,29.5522847 15,29 C15,28.4477153 15.4477153,28 16,28 L28,28 Z M11.2418886,8.1891695 L20.768168,13.6891695 L13.768168,25.8135251 L4.24188856,20.3135251 L11.2418886,8.1891695 Z M16.107914,1.76096627 L23.9021426,6.26096627 C24.3804352,6.53710864 24.5443104,7.14869905 24.268168,7.62699167 L21.768168,11.9571187 L12.2418886,6.45711869 L14.7418886,2.12699167 C15.0180309,1.64869905 15.6296213,1.48482389 16.107914,1.76096627 Z" id="&#24418;&#29366;" />
    </g>
</svg>

<svg xmlns="http://www.w3.org/2000/svg" viewBox="0 0 32 32"><path fill="currentColor" d="m3.242 22.046 9.526 5.5-.055.096a1 1 0 0 1-.566.453l-6.351 2.002a1 1 0 0 1-1.255-.653l-.022-.084-1.443-6.502a1 1 0 0 1 .11-.716zM28 28a1 1 0 0 1 0 2H16a1 1 0 0 1 0-2zM11.242 8.19l9.526 5.5-7 12.124-9.526-5.5zm4.866-6.429 7.794 4.5a1 1 0 0 1 .366 1.366l-2.5 4.33-9.526-5.5 2.5-4.33a1 1 0 0 1 1.366-.366"/></svg>
